( Made using CamBam - http://www.cambam.co.uk )
( Backenfutter_Flansch 5/8/2020 3:30:37 PM )
( T4 : 12.0 )
N005 G17 G21 G64


( Tasche1 )
( T4 : 12.0 HPC )
N010 G40 G80
N015 T4
N020 M6
N025 G0 G90 G54 X50 Y70 S4750 M3 T23
N030 G43 H4 Z2 M8
N035 G1 Z-9 F300
N040 G1 X40.134 Y61.694 F800
N045 G1 X38.719 Y55.036
N050 G3 X57.269 Y38.038 I14.281 J-3.036
N055 G1 X62.094 Y39.513
N060 G3 X40.134 Y61.694 I-62.094 J-39.513
N065 G1 X38.719 Y55.036
N070 G1 X38.523 Y55.077
N075 G3 X57.327 Y37.847 I14.477 J-3.077
N080 G1 X62.403 Y39.399
N085 G3 X39.999 Y62.02 I-62.403 J-39.399
N090 G1 X38.523 Y55.077
N095 G1 X50 Y70
N100 G0 Z150 M5
N105 M9
N110 M6

( Tasche2 )
N115 G0 G90 G54 X-50 Y70 S3600 M3 T24
N120 G43 H4 Z2 M8
N125 G1 Z-9 F300
N130 G1 X-40.134 Y61.694 F800
N135 G3 X-62.094 Y39.513 I40.134 J-61.694
N140 G1 X-57.269 Y38.038
N145 G3 X-38.719 Y55.035 I4.269 J13.962
N150 G1 X-40.134 Y61.694
N155 G1 X-39.939 Y61.736 F300
N160 G1 X-39.999 Y62.02 F800
N165 G3 X-62.403 Y39.399 I39.999 J-62.02
N170 G1 X-57.327 Y37.847
N175 G3 X-38.523 Y55.077 I4.327 J14.153
N180 G1 X-39.939 Y61.736
N185 G1 X-50
N190 G1 Y70
N195 G0 Z150 M5
N200 M9
N205 M6

( Tasche3 )
N210 G0 G90 G54 X50 Y-70 S3600 M3 T4
N215 G43 H4 Z2 M8
N220 G1 Z-9 F300
N225 G1 X57.044 Y-46.507 F800
N230 G3 X31.036 Y-51.156 I-11.544 J-10.493
N235 G1 X23.528 Y-69.738
N240 G3 X57.044 Y-46.507 I-23.528 J69.738
N245 G1 X57.192 Y-46.373 F300
N250 G3 X30.851 Y-51.081 I-11.692 J-10.627 F800
N255 G1 X23.181 Y-70.065
N260 G3 X57.307 Y-46.501 I-23.181 J70.065
N265 G3 X57.192 Y-46.373 I-11.807 J-10.499
N270 G1 Y-70
N275 G0 Z150 M5
N280 M9
N285 M6

( Tasche4 )
( T4 : 12.0 )
N290 G0 G90 G54 X-50 Y-70 S3600 M3 T23
N295 G43 H4 Z2 M8
N300 G1 Z-9 F300
N305 G1 X-57.307 Y-46.501 F800
N310 G3 X-23.181 Y-70.065 I57.307 J46.501
N315 G1 X-30.85 Y-51.081
N320 G3 X-57.307 Y-46.501 I-14.649 J-5.919
N325 G3 X-23.181 Y-70.065 I57.307 J46.501
N330 G1 X-30.85 Y-51.081
N335 G3 X-57.307 Y-46.501 I-14.649 J-5.919
N340 G1 X-57.457 Y-46.368 F300
N345 G3 X-57.569 Y-46.496 I11.957 J-10.632 F800
N350 G3 X-22.834 Y-70.389 I57.569 J46.496
N355 G1 X-30.665 Y-51.006
N360 G3 X-57.457 Y-46.368 I-14.835 J-5.994
N365 G1 Y-70
N370 G0 Z150 M5

N375 M30
